!!! OTL: Literature111
!!! Chapter: 5
!!! Section: III
!!! Page: 370
!!! Mode: 
!!! Encoder: DJB
**kern
*staff1
*I"Piano
=1-
*clefF4
*k[f#]
*G:
*M6/8
4.G\
4d\
8c#\
=2
[4.c\
4c\]
8B\
=3
[4.B-\
4B-\]
8A\
=4
2.G\
=5
4.G\
4F#\
8G\
=6
4.B\
4B\
8G\
=7
[4.D\
4D\]
8C/
=8
2.BB/
=9
4.G\
4d\
8c#\
=10
[4.c\
4c\]
8B\
=11
[4.B-\
4B-\]
8A\
=12
!!linebreak:original
2.G\
=13
4.G\
4F#\
8F#\
=14
4.D\
4C#/
8D\
=15
[4.B\
4B\]
8A\
=16
2.G\
==
*-
